X:652
T: Yangque ti
N: C2176
O: China,Hunan Yiyang
S: I, 496]
R: Xiaodiao, Dengdiao]
M: 2/4
L: 1/16
K: D
d2AAABd2 | AA2FE4 | d2ddABd2 | AA2FE4 |
A2A4B2 | d3fd2d2 | A2FAd2F2 | A2A2FAdd | A3FE4 |
d2dFE2EF | d3FA4 | d2dFE2EF | d3FA4 |
FAddA4 | FAddA4 |
A2A4B2 | d3fd2d2 | A2FAd2F2 | A2A2FAdd | A3FE4

@@@ Tune index: 7207
